ExpEYES17/UserManual/ml/rst/exp/_build/html/_images/stroboscope.svg

<?xml version="1.0" encoding="UTF-8" standalone="no"?>
<svg
   xmlns:dc="http://purl.org/dc/elements/1.1/"
   xmlns:cc="http://creativecommons.org/ns#"
   xmlns:rdf="http://www.w3.org/1999/02/22-rdf-syntax-ns#"
   xmlns:svg="http://www.w3.org/2000/svg"
   xmlns="http://www.w3.org/2000/svg"
   xmlns:sodipodi="http://sodipodi.sourceforge.net/DTD/sodipodi-0.dtd"
   xmlns:inkscape="http://www.inkscape.org/namespaces/inkscape"
   version="1.1"
   id="stroboscope"
   width="100%"
   height="100%"
   viewBox="-6 -6 518 278"
   sodipodi:docname="stroboscope.svg"
   inkscape:export-filename="/home/georgesk/developpement/expeyes/expeyes/ExpEYES17/UserManual/fr/rst/exp/schematics/stroboscope.png"
   inkscape:export-xdpi="56.031128"
   inkscape:export-ydpi="56.031128"
   inkscape:version="0.92.3 (2405546, 2018-03-11)">
  <metadata
     id="metadata71">
    <rdf:RDF>
      <cc:Work
         rdf:about="">
        <dc:format>image/svg+xml</dc:format>
        <dc:type
           rdf:resource="http://purl.org/dc/dcmitype/StillImage" />
        <dc:title />
      </cc:Work>
    </rdf:RDF>
  </metadata>
  <defs
     id="defs69" />
  <sodipodi:namedview
     pagecolor="#ffffff"
     bordercolor="#666666"
     borderopacity="1"
     objecttolerance="10"
     gridtolerance="10"
     guidetolerance="10"
     inkscape:pageopacity="0"
     inkscape:pageshadow="2"
     inkscape:window-width="1668"
     inkscape:window-height="1013"
     id="namedview67"
     showgrid="false"
     inkscape:zoom="2.0656371"
     inkscape:cx="259"
     inkscape:cy="139"
     inkscape:window-x="0"
     inkscape:window-y="0"
     inkscape:window-maximized="1"
     inkscape:current-layer="stroboscope" />
  <desc
     id="desc2">
XCircuit Version 3.7
File &quot;stroboscope.ps&quot; Page 1
</desc>
  <text
     font-size="40"
     id="text6"
     style="font-size:40px;font-family:Helvetica;fill:#000000;stroke:none"
     x="35.193748"
     y="69.860001">
    <tspan
       x="35.193748"
       y="69.860001"
       id="tspan4">SQ1</tspan>
  </text>
  <path
     style="fill:#000000;stroke:none"
     inkscape:connector-curvature="0"
     id="path10"
     d="m 226,112 -18,32 -18,-32 z" />
  <path
     style="fill:none;stroke:#000000;stroke-width:2;stroke-linecap:round;stroke-linejoin:bevel"
     inkscape:connector-curvature="0"
     id="path12"
     d="m 208,80 v 32" />
  <path
     style="fill:none;stroke:#000000;stroke-width:2;stroke-linecap:round;stroke-linejoin:bevel"
     inkscape:connector-curvature="0"
     id="path14"
     d="M 208,176 V 144" />
  <path
     style="fill:none;stroke:#000000;stroke-width:2;stroke-linecap:round;stroke-linejoin:bevel"
     inkscape:connector-curvature="0"
     id="path16"
     d="M 226,144 H 190" />
  <text
     font-size="40"
     id="text20"
     style="font-size:40px;font-family:Helvetica;fill:#000000;stroke:none"
     x="35.779999"
     y="246.58">
    <tspan
       x="35.779999"
       y="246.58"
       id="tspan18">GND</tspan>
  </text>
  <path
     style="fill:none;stroke:#000000;stroke-width:2;stroke-linecap:round;stroke-linejoin:bevel"
     inkscape:connector-curvature="0"
     id="path24"
     d="m 32,32 v 48 h 80 V 32 Z" />
  <path
     style="fill:none;stroke:#000000;stroke-width:2;stroke-linecap:round;stroke-linejoin:bevel"
     inkscape:connector-curvature="0"
     id="path26"
     d="m 32,208 v 48 h 96 v -48 z" />
  <circle
     style="fill:none;stroke:#000000;stroke-width:2;stroke-linecap:round;stroke-linejoin:bevel"
     r="16"
     id="ellipse28"
     cy="64"
     cx="208" />
  <circle
     style="fill:none;stroke:#000000;stroke-width:2;stroke-linecap:round;stroke-linejoin:bevel"
     r="16"
     id="ellipse30"
     cy="192"
     cx="208" />
  <path
     style="fill:none;stroke:#000000;stroke-width:2;stroke-linecap:round;stroke-linejoin:bevel"
     inkscape:connector-curvature="0"
     id="path32"
     d="m 208,208 c -1.84544,16.88082 -32,48 -80,32"
     sodipodi:nodetypes="cc" />
  <path
     style="fill:none;stroke:#000000;stroke-width:2;stroke-linecap:round;stroke-linejoin:bevel"
     inkscape:connector-curvature="0"
     id="path34"
     d="M 195.85847,52.90689 C 181.95531,27.826816 148.34078,20.256983 112,48"
     sodipodi:nodetypes="cc" />
  <path
     style="fill:none;stroke:#000000;stroke-width:2;stroke-linecap:round;stroke-linejoin:bevel"
     inkscape:connector-curvature="0"
     id="path36"
     d="m 304,64 v 160 h 32 V 64 Z" />
  <path
     style="fill:none;stroke:#000000;stroke-width:2;stroke-linecap:round;stroke-linejoin:bevel"
     inkscape:connector-curvature="0"
     id="path38"
     d="m 304,192 v 16 h -16 v -16 z" />
  <path
     style="fill:none;stroke:#000000;stroke-width:2;stroke-linecap:round;stroke-linejoin:bevel"
     inkscape:connector-curvature="0"
     id="path40"
     d="m 336,128 v 32 h 32 v -32 z" />
  <path
     style="fill:none;stroke:#000000;stroke-width:2;stroke-linecap:round;stroke-linejoin:bevel"
     inkscape:connector-curvature="0"
     id="path42"
     d="m 368,96 v 96 H 496 V 96 Z" />
  <text
     font-size="40"
     id="text46"
     style="font-size:40px;font-family:Helvetica;fill:#000000;stroke:none"
     x="380.9628"
     y="158.28">
    <tspan
       x="380.9628"
       y="158.28"
       id="tspan44">Motor</tspan>
  </text>
  <text
     font-size="40"
     id="text52"
     style="font-size:40px;font-family:Helvetica;fill:#000000;stroke:none"
     transform="rotate(-90)"
     x="-170.44321"
     y="284.62384">
    <tspan
       x="-170.44321"
       y="284.62384"
       id="tspan50">Disk</tspan>
  </text>
  <path
     style="fill:none;stroke:#000000;stroke-width:2;stroke-linecap:round;stroke-linejoin:bevel"
     inkscape:connector-curvature="0"
     id="path56"
     d="M 0,272 V 0 h 512 v 272 z" />
  <text
     font-size="40"
     id="text60"
     style="font-size:40px;font-family:Helvetica;fill:#000000;stroke:none"
     transform="rotate(-90)"
     x="-160"
     y="176">
    <tspan
       x="-160"
       y="176"
       id="tspan58">LED</tspan>
  </text>
</svg>

<svg xmlns="http://www.w3.org/2000/svg"
   xmlns:xlink="http://www.w3.org/1999/xlink"
   version="1.1"
   id="stroboscope" width="100%" height="100%"  viewBox="-6 -6 518 278">
<desc>
XCircuit Version 3.7
File "stroboscope.ps" Page 1
</desc>
<g stroke="black">
<g transform="matrix(   1    0   -0    1  32  64)" fill="#000000" >
<text stroke="none" font-family="Helvetica" font-size="40" ><tspan x="0" y="0">SQ1</tspan>
</text></g>
<path d="M226,112 L208,144 190,112 z" fill="#000000" stroke="none" />
<path d="M208,80 L208,112 " fill="none" stroke-width="2" stroke-linejoin="bevel" stroke-linecap="round" stroke="#000000" />
<path d="M208,176 L208,144 " fill="none" stroke-width="2" stroke-linejoin="bevel" stroke-linecap="round" stroke="#000000" />
<path d="M226,144 L190,144 " fill="none" stroke-width="2" stroke-linejoin="bevel" stroke-linecap="round" stroke="#000000" />
<g transform="matrix(   1    0   -0    1  32 240)" fill="#000000" >
<text stroke="none" font-family="Helvetica" font-size="40" ><tspan x="0" y="0">GND</tspan>
</text></g>
<path d="M32,32 L32,80 112,80 112,32 z" fill="none" stroke-width="2" stroke-linejoin="bevel" stroke-linecap="round" stroke="#000000" />
<path d="M32,208 L32,256 128,256 128,208 z" fill="none" stroke-width="2" stroke-linejoin="bevel" stroke-linecap="round" stroke="#000000" />
<ellipse cx="208" cy="64" rx="16" ry="16" fill="none" stroke-width="2" stroke-linejoin="bevel" stroke-linecap="round" stroke="#000000" />
<ellipse cx="208" cy="192" rx="16" ry="16" fill="none" stroke-width="2" stroke-linejoin="bevel" stroke-linecap="round" stroke="#000000" />
<path d="M208,208 C224,208 176,256 128,240 " fill="none" stroke-width="2" stroke-linejoin="bevel" stroke-linecap="round" stroke="#000000" />
<path d="M192,64 C208,64 144,0 112,48 " fill="none" stroke-width="2" stroke-linejoin="bevel" stroke-linecap="round" stroke="#000000" />
<path d="M304,64 L304,224 336,224 336,64 z" fill="none" stroke-width="2" stroke-linejoin="bevel" stroke-linecap="round" stroke="#000000" />
<path d="M304,192 L304,208 288,208 288,192 z" fill="none" stroke-width="2" stroke-linejoin="bevel" stroke-linecap="round" stroke="#000000" />
<path d="M336,128 L336,160 368,160 368,128 z" fill="none" stroke-width="2" stroke-linejoin="bevel" stroke-linecap="round" stroke="#000000" />
<path d="M368,96 L368,192 496,192 496,96 z" fill="none" stroke-width="2" stroke-linejoin="bevel" stroke-linecap="round" stroke="#000000" />
<g transform="matrix(   1    0   -0    1 384 144)" fill="#000000" >
<text stroke="none" font-family="Helvetica" font-size="40" ><tspan x="0" y="0">Motor</tspan>
</text></g>
<g transform="matrix(-1.16895e-11   -1    1 -1.16895e-11 288 128)" fill="#000000" >
<text stroke="none" font-family="Helvetica" font-size="40" ><tspan x="0" y="0">Disc</tspan>
</text></g>
<path d="M0,272 L0,0 512,0 512,272 z" fill="none" stroke-width="2" stroke-linejoin="bevel" stroke-linecap="round" stroke="#000000" />
<g transform="matrix(-1.16895e-11   -1    1 -1.16895e-11 176 160)" fill="#000000" >
<text stroke="none" font-family="Helvetica" font-size="40" ><tspan x="0" y="0">LED</tspan>
</text></g>
</g>
</svg>
